X: 1
T:Boda
R:Hambo
M:3/4
L:1/8
O:Sweden
Z:Carol Turner
K:G
D | \
G2 g2 g>f | e>d cB A>G | F>E DF A>F | G>A B/2A/2B/2c/2 d2 |\
G2 g2 g>f | e>d cB A>G | F>E DF A>F | G2 G4:: \
d>c B>A G>F | E>D CB, A,2 | D2 F>D F>A | G>A B/2A/2B/2c/2 d2 |\
d>c B>A G>F | E>D CB, A,2 | D2 F>D F>A | AF G4:|
